X: 100
T:Missa Malheur me bat / Agnus Dei
N: Derived from Jos0901e-Missa_Malheur_me_bat-Agnus.krn
C: Josquin des Prez
%%abc-version 2.0
%%abcx-abcm2ps-target-version 5.9.1 (29 Sep 2008)
%%abc-creator hum2abc beta
%%abcx-conversion-date 2019/02/12 16:15:43
%%abc-edited-by Jesse Rodin
%%abc-edited-by Jesse Rodin; Victoria Chang 2011/05/09
%%abcx-initial-encoding-date 2011/05/08/
%%humdrum-veritas 2624490856
%%humdrum-veritas-data 649270394
%%linebreak <none>
%%barnumbers 0
L: 1/4
M: 2/1
Q: 1/2=120
V: 1 clef=treble
V: 2 clef=treble-8
V: 3 clef=treble-8
V: 4 clef=treble-8
V: 5 clef=bass
V: 6 clef=bass
K: C
[V:1] E4E2E2- | 
[V:2] z8 | 
[V:3] z8 | 
[V:4] E8- :
[V:5] z8 | 
[V:6] z8 | 
[V:1] E2DCB,4 | 
[V:2] e4e2e2- | 
[V:3] z8 | 
[V:4] E8 | 
[V:5] z8 | 
[V:6] z8 | 
[V:1] z2G2G2G2- | 
[V:2] e2dcB2E2 | 
[V:3] z8 | 
[V:4] B8 :
[V:5] E,4E,2E,2- | 
[V:6] z8 | 
[V:1] G2FED4 | 
[V:2] G8 | 
[V:3] z8 | 
[V:4] B8 | 
[V:5] E,2D,C,B,,4 | 
[V:6] z8 | 
[V:1] z2c2c2c2- | 
[V:2] A4z2c2 | 
[V:3] z8 | 
[V:4] c8 :
[V:5] z8 | 
[V:6] z8 | 
[V:1] c2BAG4 | 
[V:2] c2c4BA | 
[V:3] z8 | 
[V:4] c8 | 
[V:5] z8 | 
[V:6] z8 | 
[V:1] z2G2G2G2- | 
[V:2] G4E4 | 
[V:3] z8 | 
[V:4] B8 :
[V:5] z2E,2E,2E,2- | 
[V:6] z8 | 
[V:1] G2FED4 | 
[V:2] B4z2B2 | 
[V:3] z8 | 
[V:4] G8 | 
[V:5] E,2D,C,B,,4 | 
[V:6] z8 | 
[V:1] z2A2A2A2- | 
[V:2] c4A4 | 
[V:3] z8 | 
[V:4] A8 :
[V:5] z4z2A,2 | 
[V:6] z8 | 
[V:1] A2GFE4 | 
[V:2] z2e2e2e2- | 
[V:3] z8 | 
[V:4] A8 | 
[V:5] A,2A,4G,F, | 
[V:6] z8 | 
[V:1] z2E2E2E2- | 
[V:2] e2dcB2E2- | 
[V:3] z8 | 
[V:4] G8 :
[V:5] E,4z2G,2 | 
[V:6] z8 | 
[V:1] E2DCB,4 | 
[V:2] E4G4 | 
[V:3] z8 | 
[V:4] E8 | 
[V:5] G,2G,4F,E, | 
[V:6] z8 | 
[V:1] z2D2D2D2- | 
[V:2] A8 | 
[V:3] z8 | 
[V:4] F8 :
[V:5] D,8- | 
[V:6] z8 | 
[V:1] D2CB,A,4 | 
[V:2] z2d2d2d2- | 
[V:3] z8 | 
[V:4] F8 | 
[V:5] D,8- | 
[V:6] z8 | 
[V:1] z2A2A2A2- | 
[V:2] d2cBA4 | 
[V:3] z8 | 
[V:4] F8 :
[V:5] D,8 | 
[V:6] z8 | 
[V:1] A2GFE4 | 
[V:2] z2c2c2c2- | 
[V:3] z8 | 
[V:4] E8- | 
[V:5] A,,8 | 
[V:6] z8 | 
[V:1] G3ABcB2 | 
[V:2] c2BAG4 | 
[V:3] z8 | 
[V:4] E8 :
[V:5] E,8- | 
[V:6] z8 | 
[V:1] GABcB2c2- | 
[V:2] z2e2e2e2- | 
[V:3] z8 | 
[V:4] z8 | 
[V:5] E,8- | 
[V:6] z8 | 
[V:1] c2BA^GABG | 
[V:2] e2dcB4 | 
[V:3] z8 | 
[V:4] e8 :
[V:5] E,8 | 
[V:6] z8 | 
[V:1] A4E4 | 
[V:2] A8 | 
[V:3] z8 | 
[V:4] c8 | 
[V:5] A,,3G,,A,,B,,C,2- | 
[V:6] z8 | 
[V:1] z2G3FE2- | 
[V:2] E8- | 
[V:3] z8 | 
[V:4] e8 :
[V:5] C,B,,C,D,E,D,E,F, | 
[V:6] z8 | 
[V:1] E2DCB,4 | 
[V:2] E8 | 
[V:3] z8 | 
[V:4] B8 | 
[V:5] G,2A,4^G,2 | 
[V:6] z8 | 
[V:1] A,G,A,B,CB,CD | 
[V:2] e8 | 
[V:3] z8 | 
[V:4] c8 :
[V:5] A,2A,,3G,,A,,B,, | 
[V:6] z8 | 
[V:1] EDEFG4- | 
[V:2] z4z2e2- | 
[V:3] z8 | 
[V:4] G8 | 
[V:5] C,B,,C,D,E,D,E,F, | 
[V:6] z8 | 
[V:1] G2FED4 | 
[V:2] e2dcB4 | 
[V:3] z8 | 
[V:4] B8 :
[V:5] G,2A,4^G,2 | 
[V:6] z8 | 
[V:1] z2C3B,CD | 
[V:2] A3Bcde2 | 
[V:3] z8 | 
[V:4] e8 | 
[V:5] A,8 | 
[V:6] z8 | 
[V:1] EDEFGFGA | 
[V:2] A2c4BA | 
[V:3] z8 | 
[V:4] c8 :
[V:5] z8 | 
[V:6] z8 | 
[V:1] B2c4B2 | 
[V:2] G2F2G4 | 
[V:3] z8 | 
[V:4] d8 | 
[V:5] z8 | 
[V:6] z8 | 
[V:1] c4z2C2- | 
[V:2] z2A3GAB | 
[V:3] z8 | 
[V:4] c8 :
[V:5] z8 | 
[V:6] z8 | 
[V:1] CB,CDEDEF | 
[V:2] c2A2c3B | 
[V:3] z8 | 
[V:4] A8 | 
[V:5] z8 | 
[V:6] z8 | 
[V:1] G3FD4 | 
[V:2] G8 | 
[V:3] z8 | 
[V:4] B8 :
[V:5] z8 | 
[V:6] z8 | 
[V:1] C8- | 
[V:2] z4z2A2- | 
[V:3] z8 | 
[V:4] e8 | 
[V:5] z2A,,3G,,A,,B,, | 
[V:6] z8 | 
[V:1] C8 | 
[V:2] AGABc2A2- | 
[V:3] z8 | 
[V:4] e8 :
[V:5] C,2A,,3G,,A,,B,, | 
[V:6] z8 | 
[V:1] z8 | 
[V:2] AGABcBcd | 
[V:3] z8 | 
[V:4] e8 | 
[V:5] C,2A,,3G,,A,,B,, | 
[V:6] z8 | 
[V:1] z8 | 
[V:2] edefg4- | 
[V:3] z8 | 
[V:4] e8 :
[V:5] C,B,,C,D,E,D,E,F, | 
[V:6] z8 | 
[V:1] z8 | 
[V:2] g2fed4 | 
[V:3] z8 | 
[V:4] B8 | 
[V:5] G,2A,4^G,2 | 
[V:6] z8 | 
[V:1] A,3G,A,B,C2- | 
[V:2] c4z2A2- | 
[V:3] z8 | 
[V:4] c8 :
[V:5] A,4z4 | 
[V:6] z8 | 
[V:1] CB,CDEFG2- | 
[V:2] AGABc3B | 
[V:3] z8 | 
[V:4] c8 | 
[V:5] z8 | 
[V:6] z8 | 
[V:1] G2FED4 | 
[V:2] G8 | 
[V:3] z8 | 
[V:4] B8 :
[V:5] z8 | 
[V:6] z8 | 
[V:1] C3B,CDE2- | 
[V:2] z2A4G2 | 
[V:3] z8 | 
[V:4] E8 | 
[V:5] A,,3G,,A,,B,,C,2- | 
[V:6] z8 | 
[V:1] EDEFG2E2- | 
[V:2] c4B4 | 
[V:3] z8 | 
[V:4] E8 :
[V:5] C,B,,C,D,E,D,E,F, | 
[V:6] z8 | 
[V:1] E2DCB,4 | 
[V:2] e4z2e2 | 
[V:3] z8 | 
[V:4] E8 | 
[V:5] G,2A,4^G,2 | 
[V:6] z8 | 
[V:1] A,8 | 
[V:2] c2A2c3B | 
[V:3] z8 | 
[V:4] F8 :
[V:5] A,2C2A,2C2- | 
[V:6] z8 | 
[V:1] z2G2G2G2 | 
[V:2] G8 | 
[V:3] z8 | 
[V:4] E8 | 
[V:5] C2B,A,B,4 | 
[V:6] z8 | 
[V:1] A2E2A3G | 
[V:2] z8 | 
[V:3] z8 | 
[V:4] A8 :
[V:5] z2A,2F,2A,2- | 
[V:6] z8 | 
[V:1] FEE4D2 | 
[V:2] z8 | 
[V:3] z8 | 
[V:4] A8 | 
[V:5] A,G,F,E,F,4 | 
[V:6] z8 | 
[V:1] E3DB,4 | 
[V:2] z2g2g2g2 | 
[V:3] z8 | 
[V:4] B8 :
[V:5] E,8 | 
[V:6] z8 | 
[V:1] A,8 | 
[V:2] a2e2a3g | 
[V:3] z8 | 
[V:4] c8 | 
[V:5] z2A,2F,2A,2- | 
[V:6] z8 | 
[V:1] z8 | 
[V:2] fee4d2 | 
[V:3] z8 | 
[V:4] A8 :
[V:5] A,G,F,E,F,4 | 
[V:6] z8 | 
[V:1] z2E2C2E2- | 
[V:2] e8 | 
[V:3] z8 | 
[V:4] G8 | 
[V:5] E,8- | 
[V:6] z8 | 
[V:1] E2DCB,4 | 
[V:2] z8 | 
[V:3] z8 | 
[V:4] G8 :
[V:5] E,8 | 
[V:6] z8 | 
[V:1] A,4z4 | 
[V:2] z2e2c2e2- | 
[V:3] z8 | 
[V:4] A8 | 
[V:5] z8 | 
[V:6] z8 | 
[V:1] z8 | 
[V:2] e2dcB4 | 
[V:3] z8 | 
[V:4] G8 :
[V:5] z8 | 
[V:6] z8 | 
[V:1] z8 | 
[V:2] A2c2A2c2- | 
[V:3] z8 | 
[V:4] c8 | 
[V:5] z2A,2F,2A,2- | 
[V:6] z8 | 
[V:1] z8 | 
[V:2] c2BAG4 | 
[V:3] z8 | 
[V:4] e8 :
[V:5] A,2G,F,E,4 | 
[V:6] z8 | 
[V:1] z2A2F2A2- | 
[V:2] d8 | 
[V:3] z8 | 
[V:4] f8 | 
[V:5] D,8 | 
[V:6] z8 | 
[V:1] A2GFE4 | 
[V:2] z2e2c2e2- | 
[V:3] z8 | 
[V:4] c8 :
[V:5] A,,8 | 
[V:6] z8 | 
[V:1] z8 | 
[V:2] e2dcB4 | 
[V:3] z8 | 
[V:4] B8 | 
[V:5] E,8 | 
[V:6] z8 | 
[V:1] z2c2A2c2- | 
[V:2] A8 | 
[V:3] z8 | 
[V:4] c8- :
[V:5] z2A,2F,2A,2- | 
[V:6] z8 | 
[V:1] c2BAG4 | 
[V:2] z8 | 
[V:3] z8 | 
[V:4] c8 | 
[V:5] A,2G,F,E,4 | 
[V:6] z8 | 
[V:1] C8 | 
[V:2] z2c2A2c2- | 
[V:3] z8 | 
[V:4] z8 :
[V:5] A,,2A,2F,2A,2- | 
[V:6] z8 | 
[V:1] z8 | 
[V:2] c2BAG4 | 
[V:3] z8 | 
[V:4] c8 | 
[V:5] A,2G,F,E,4 | 
[V:6] z8 | 
[V:1] z2A2F2A2- | 
[V:2] A6B2 | 
[V:3] z8 | 
[V:4] d8 :
[V:5] D,8 | 
[V:6] z8 | 
[V:1] A2GFE2A,2 | 
[V:2] c8 | 
[V:3] z8 | 
[V:4] e8 | 
[V:5] A,,8 | 
[V:6] z8 | 
[V:1] z2A2F2A2- | 
[V:2] f8 | 
[V:3] z8 | 
[V:4] d8 :
[V:5] D,8 | 
[V:6] z8 | 
[V:1] A2GFE2c2 | 
[V:2] e8 | 
[V:3] z8 | 
[V:4] c8 | 
[V:5] A,6A,2 | 
[V:6] z8 | 
[V:1] A2c4BA | 
[V:2] e6e2 | 
[V:3] z8 | 
[V:4] c8 :
[V:5] A,2A,2A,4 | 
[V:6] z8 | 
[V:1] G2E2E4 | 
[V:2] e2e2c3A | 
[V:3] z8 | 
[V:4] z8 | 
[V:5] E,4z2A,2- | 
[V:6] z8 | 
[V:1] z2c2A2c2- | 
[V:2] A2e2f2e2- | 
[V:3] z8 | 
[V:4] c8 :
[V:5] A,2A,2A,2A,2 | 
[V:6] z8 | 
[V:1] c2BAG4 | 
[V:2] e2c2B4 | 
[V:3] z8 | 
[V:4] e8 | 
[V:5] A,4E,4 | 
[V:6] z8 | 
[V:1] A4E4 | 
[V:2] A8 | 
[V:3] z8 | 
[V:4] c8 :
[V:5] z2A,4A,2 | 
[V:6] z8 | 
[V:1] z2A4A2 | 
[V:2] c6c2 | 
[V:3] z8 | 
[V:4] F8 | 
[V:5] A,2A,2A,4 | 
[V:6] z8 | 
[V:1] A4G4 | 
[V:2] c2c2c4 | 
[V:3] z8 | 
[V:4] E8- :
[V:5] A,,4z2C,2- | 
[V:6] z8 | 
[V:1] G3FEDE2- | 
[V:2] G4z2G2- | 
[V:3] z8 | 
[V:4] E8- | 
[V:5] C,2C,2C,2C,2 | 
[V:6] z8 | 
[V:1] E2DCB,4 | 
[V:2] G2FEG4 | 
[V:3] z8 | 
[V:4] E8- :
[V:5] C,4G,,4 | 
[V:6] z8 | 
[V:1] C3DE2A,2- | 
[V:2] C2c4c2 | 
[V:3] z8 | 
[V:4] E8- | 
[V:5] z2A,,4A,,2 | 
[V:6] z8 | 
[V:1] A,B,CDE2A2- | 
[V:2] c2c2c4 | 
[V:3] z8 | 
[V:4] E8- :
[V:5] A,,2A,,2A,,4 | 
[V:6] z8 | 
[V:1] A2GFG4 | 
[V:2] B8- | 
[V:3] z8 | 
[V:4] E8- | 
[V:5] E,,8- | 
[V:6] z8 | 
[V:1] G8 ||  
[V:2] B8 ||  
[V:3] z8 ||  
[V:4] E8 ||  
[V:5] E,,8 ||  
[V:6] z8 ||  
[V:1]  [K:C] [K:clef=treble][M:2/1]z8 | 
[V:2]  [K:C] [K:clef=treble-8][M:2/1]z4E4 | 
[V:3]  [K:C] [K:clef=treble-8][M:2/1]z8 | 
[V:4]  [K:C] [K:clef=treble-8][M:2/1]D4G4 | 
[V:5]  [K:C] [K:clef=bass][M:2/1]z8 | 
[V:6]  [K:C] [K:clef=bass][M:2/1]z8 | 
[V:1] z8 | 
[V:2] A4G2E2 | 
[V:3] z8 | 
[V:4] F2D2E4 | 
[V:5] z8 | 
[V:6] z8 | 
[V:1] z8 | 
[V:2] F4E4 | 
[V:3] z8 | 
[V:4] D4G4 | 
[V:5] z8 | 
[V:6] z8 | 
[V:1] z8 | 
[V:2] A4G4 | 
[V:3] z8 | 
[V:4] F4E4 | 
[V:5] z8 | 
[V:6] z8 | 
[V:1] z8 | 
[V:2] F4z2E2 | 
[V:3] z8 | 
[V:4] z2D2E2G2 | 
[V:5] z8 | 
[V:6] z8 | 
[V:1] z8 | 
[V:2] F2A2G3F | 
[V:3] z8 | 
[V:4] F3EC2G2 | 
[V:5] z8 | 
[V:6] z8 | 
[V:1] z8 | 
[V:2] D2A2G2E2 | 
[V:3] z8 | 
[V:4] F2D2E4 | 
[V:5] z8 | 
[V:6] z8 | 
[V:1] z8 | 
[V:2] F4E2B2 | 
[V:3] z8 | 
[V:4] D2A2B2d2 | 
[V:5] z8 | 
[V:6] z8 | 
[V:1] z8 | 
[V:2] c2e2d3c | 
[V:3] z8 | 
[V:4] c3BG2d2 | 
[V:5] z8 | 
[V:6] z8 | 
[V:1] z8 | 
[V:2] A2e2d2B2 | 
[V:3] z8 | 
[V:4] c2A2B4 | 
[V:5] z8 | 
[V:6] z8 | 
[V:1] z8 | 
[V:2] c4B4 | 
[V:3] z8 | 
[V:4] A4z2G2 | 
[V:5] z8 | 
[V:6] z8 | 
[V:1] z8 | 
[V:2] z2A2B2G2 | 
[V:3] z8 | 
[V:4] A2F2G2E2 | 
[V:5] z8 | 
[V:6] z8 | 
[V:1] z8 | 
[V:2] A2F2G2E2 | 
[V:3] z8 | 
[V:4] F2D2E2C2 | 
[V:5] z8 | 
[V:6] z8 | 
[V:1] z8 | 
[V:2] F2D2E2G2 | 
[V:3] z8 | 
[V:4] D2F2E4 | 
[V:5] z8 | 
[V:6] z8 | 
[V:1] z8 | 
[V:2] F4E4 | 
[V:3] z8 | 
[V:4] D4z2C2 | 
[V:5] z8 | 
[V:6] z8 | 
[V:1] z8 | 
[V:2] z2D2G4 | 
[V:3] z8 | 
[V:4] F4E4 | 
[V:5] z8 | 
[V:6] z8 | 
[V:1] z8 | 
[V:2] F4z2E2 | 
[V:3] z8 | 
[V:4] z2D2G4 | 
[V:5] z8 | 
[V:6] z8 | 
[V:1] z8 | 
[V:2] A4G4 | 
[V:3] z8 | 
[V:4] F4z2E2 | 
[V:5] z8 | 
[V:6] z8 | 
[V:1] z8 | 
[V:2] z2F2_B4 | 
[V:3] z8 | 
[V:4] A4G4 | 
[V:5] z8 | 
[V:6] z8 | 
[V:1] z8 | 
[V:2] A4z2G2 | 
[V:3] z8 | 
[V:4] z2F2_B4 | 
[V:5] z8 | 
[V:6] z8 | 
[V:1] z8 | 
[V:2] c4B4 | 
[V:3] z8 | 
[V:4] A4z2G2 | 
[V:5] z8 | 
[V:6] z8 | 
[V:1] z8 | 
[V:2] z2A2d4 | 
[V:3] z8 | 
[V:4] c4B4 | 
[V:5] z8 | 
[V:6] z8 | 
[V:1] z8 | 
[V:2] c4z2B2 | 
[V:3] z8 | 
[V:4] z2A2d4 | 
[V:5] z8 | 
[V:6] z8 | 
[V:1] z8 | 
[V:2] e4d2B2 | 
[V:3] z8 | 
[V:4] c2A2B2G2 | 
[V:5] z8 | 
[V:6] z8 | 
[V:1] z8 | 
[V:2] c2A2B2G2 | 
[V:3] z8 | 
[V:4] A2F2G2E2 | 
[V:5] z8 | 
[V:6] z8 | 
[V:1] z8 | 
[V:2] A2F2E2e2 | 
[V:3] z8 | 
[V:4] D2d2e2c2 | 
[V:5] z8 | 
[V:6] z8 | 
[V:1] z8 | 
[V:2] f2d2e2c2 | 
[V:3] z8 | 
[V:4] d2B2c2A2 | 
[V:5] z8 | 
[V:6] z8 | 
[V:1] z8 | 
[V:2] d2B2A4 | 
[V:3] z8 | 
[V:4] G4z2c2 | 
[V:5] z8 | 
[V:6] z8 | 
[V:1] z8 | 
[V:2] z2d2e2c2 | 
[V:3] z8 | 
[V:4] d2B2c2A2 | 
[V:5] z8 | 
[V:6] z8 | 
[V:1] z8 | 
[V:2] d2B2c2A2 | 
[V:3] z8 | 
[V:4] B2G2A4 | 
[V:5] z8 | 
[V:6] z8 | 
[V:1] z8 | 
[V:2] B4z2A2 | 
[V:3] z8 | 
[V:4] z2G2A2F2 | 
[V:5] z8 | 
[V:6] z8 | 
[V:1] z8 | 
[V:2] B2G2A4 | 
[V:3] z8 | 
[V:4] G4z2F2 | 
[V:5] z8 | 
[V:6] z8 | 
[V:1] z8 | 
[V:2] z2G2A2F2 | 
[V:3] z8 | 
[V:4] G2E2F4 | 
[V:5] z8 | 
[V:6] z8 | 
[V:1] z8 | 
[V:2] G4z2F2 | 
[V:3] z8 | 
[V:4] z2E2F2D2 | 
[V:5] z8 | 
[V:6] z8 | 
[V:1] z8 | 
[V:2] G2E2F4 | 
[V:3] z8 | 
[V:4] E4[M:2/1](3D3EF2 | 
[V:5] z8 | 
[V:6] z8 | 
[V:1] [M:3/1]z12 | 
[V:2] [M:3/1]E3FG2A3Bc2 | 
[V:3] [M:3/1]z12 | 
[V:4] [M:3/1]G3AB2c4A2 | 
[V:5] [M:3/1]z12 | 
[V:6] [M:3/1]z12 | 
[V:1] z12 | 
[V:2] d4B2c2A4 | 
[V:3] z12 | 
[V:4] B2G4C4D2- | 
[V:5] z12 | 
[V:6] z12 | 
[V:1] z12 | 
[V:2] D4E3FG2A2 | 
[V:3] z12 | 
[V:4] DEF2G2E4F2- | 
[V:5] z12 | 
[V:6] z12 | 
[V:1] z12 | 
[V:2] F4G3AB2c2 | 
[V:3] z12 | 
[V:4] FGA2B2G4A2- | 
[V:5] z12 | 
[V:6] z12 | 
[V:1] z12 | 
[V:2] A4B3cd2e2 | 
[V:3] z12 | 
[V:4] ABc2d2B4c2- | 
[V:5] z12 | 
[V:6] z12 | 
[V:1] z12 | 
[V:2] c4d3BB2c2 | 
[V:3] z12 | 
[V:4] cAA2B2G4A2- | 
[V:5] z12 | 
[V:6] z12 | 
[V:1] z12 | 
[V:2] A4B3GG2A2 | 
[V:3] z12 | 
[V:4] AFF2G2E4F2- | 
[V:5] z12 | 
[V:6] z12 | 
[V:1] z12 | 
[V:2] F4G3EE2F2 | 
[V:3] z12 | 
[V:4] FDD2E2C2G2A2- | 
[V:5] z12 | 
[V:6] z12 | 
[V:1] z12 | 
[V:2] D2A2B3cd2e2 | 
[V:3] z12 | 
[V:4] ABc2d2B4G2 | 
[V:5] z12 | 
[V:6] z12 | 
[V:1] z12 | 
[V:2] c4A2B2d3c | 
[V:3] z12 | 
[V:4] A2c3BG3FD2- | 
[V:5] z12 | 
[V:6] z12 | 
[V:1] z12 | 
[V:2] A3GE4B2d2 | 
[V:3] z12 | 
[V:4] D2A2c2B2d3c | 
[V:5] z12 | 
[V:6] z12 | 
[V:1] z12 | 
[V:2] c2e3dB4A2 | 
[V:3] z12 | 
[V:4] A4G2d2D2F2 | 
[V:5] z12 | 
[V:6] z12 | 
[V:1] z12 | 
[V:2] e2E2G2F2A3G | 
[V:3] z12 | 
[V:4] E2G3FD4A2 | 
[V:5] z12 | 
[V:6] z12 | 
[V:1] z12 | 
[V:2] E4B2d2c2e2- | 
[V:3] z12 | 
[V:4] c2B2d3cA4 | 
[V:5] z12 | 
[V:6] z12 | 
[V:1] z12 | 
[V:2] edB4A2e4 | 
[V:3] z12 | 
[V:4] G2d4c2A2c2 | 
[V:5] z12 | 
[V:6] z12 | 
[V:1] z12 ||  
[V:2] d2B2d2c6 ||  
[V:3] z12 ||  
[V:4] B2G2B2A6 ||  
[V:5] z12 ||  
[V:6] z12 ||  
[V:1]  [K:C] [K:clef=treble][M:4/2]z8 :
[V:2]  [K:C] [K:clef=treble-8][M:2/1]z8 | 
[V:3]  [K:C] [K:clef=treble-8][M:2/1]z8 | 
[V:4]  [K:C] [K:clef=treble-8][M:4/2]E8- :
[V:5]  [K:C] [K:clef=bass][M:2/1]z2E,4G,2 | 
[V:6]  [K:C] [K:clef=bass][M:2/1]E,4G,2E,2 | 
[V:1] x8 | 
[V:2] z8 | 
[V:3] z8 | 
[V:4] E8 | 
[V:5] E,2G,3A,B,2 | 
[V:6] G,3A,B,2E,2 | 
[V:1] z8 :
[V:2] E2G2E2G2- | 
[V:3] z2E2G2E2 | 
[V:4] B8 :
[V:5] E,2z2z4 | 
[V:6] z8 | 
[V:1] x8 | 
[V:2] GAB2E4 | 
[V:3] G3AB2E2- | 
[V:4] B8 | 
[V:5] z8 | 
[V:6] z8 | 
[V:1] E8- :
[V:2] z8 | 
[V:3] E2z2z4 | 
[V:4] c8 :
[V:5] z2A,,B,,C,D,E,2 | 
[V:6] A,,B,,C,D,E,2A,,2- | 
[V:1] E8 | 
[V:2] z8 | 
[V:3] z8 | 
[V:4] c8 | 
[V:5] A,,3B,,C,D,E,2- | 
[V:6] A,,B,,C,D,E,4 | 
[V:1] B8 :
[V:2] G3AB2E2- | 
[V:3] z2G3AB2 | 
[V:4] B8 :
[V:5] E,2z2z4 | 
[V:6] z8 | 
[V:1] B8 | 
[V:2] EFG2E2e2 | 
[V:3] E3FG2E2 | 
[V:4] G8 | 
[V:5] z8 | 
[V:6] z8 | 
[V:1] c8 :
[V:2] c3de4 | 
[V:3] e2c3de2- | 
[V:4] A8 :
[V:5] z2A,,3B,,C,2 | 
[V:6] A,,3B,,C,2A,,2- | 
[V:1] c8 | 
[V:2] z2e3ee2 | 
[V:3] e2z2e3e | 
[V:4] A8 | 
[V:5] A,,3G,,A,,B,,C,D, | 
[V:6] A,,G,,A,,B,,C,D,E,2- | 
[V:1] B8 :
[V:2] E4e4 | 
[V:3] e2E4e2- | 
[V:4] G8 :
[V:5] E,3F,G,2E,F, | 
[V:6] E,F,G,2E,F,G,2 | 
[V:1] G8 | 
[V:2] e2e3dcB | 
[V:3] e2e2e3d | 
[V:4] E8 | 
[V:5] G,2C,4z2 | 
[V:6] C,4z4 | 
[V:1] A8 :
[V:2] A3Bc2A2 | 
[V:3] cBA3Bc2 | 
[V:4] F8 :
[V:5] z8 | 
[V:6] z8 | 
[V:1] A8 | 
[V:2] c2A2c3d | 
[V:3] A2c2A2c2- | 
[V:4] F8 | 
[V:5] z8 | 
[V:6] z8 | 
[V:1] [M:2/1]G3AB2E2- | 
[V:2] e4z4 | 
[V:3] cde4z2 | 
[V:4] [M:2/1]E3FG2A2- | 
[V:5] z8 | 
[V:6] z8 | 
[V:1] EFG2A2E2 | 
[V:2] z8 | 
[V:3] z8 | 
[V:4] AGE2F2G2 | 
[V:5] z8 | 
[V:6] z8 | 
[V:1] F2E4D2 | 
[V:2] z4A3B | 
[V:3] z4z2A2- | 
[V:4] A2E2F4 | 
[V:5] z8 | 
[V:6] z8 | 
[V:1] [M:4/2]E8 :
[V:2] cde4C2- | 
[V:3] ABcde4 | 
[V:4] [M:4/2]E8- :
[V:5] z2A,,3B,,C,D, | 
[V:6] A,,3B,,C,D,E,2- | 
[V:1] z8 | 
[V:2] CDEFG4 | 
[V:3] C3DEFG2- | 
[V:4] E8 | 
[V:5] E,4C,3D, | 
[V:6] E,2C,3D,E,F, | 
[V:1] B8 :
[V:2] E3FGAB2 | 
[V:3] G2E3FGA | 
[V:4] z8 :
[V:5] E,F,G,4E,2- | 
[V:6] G,4E,3F, | 
[V:1] G8 | 
[V:2] E4z4 | 
[V:3] B2E4z2 | 
[V:4] e8 | 
[V:5] E,F,G,A,B,2E,2 | 
[V:6] G,A,B,2E,2z2 | 
[V:1] [M:2/1]A4B4 | 
[V:2] z8 | 
[V:3] z8 | 
[V:4] [M:2/1]c4d2e2- | 
[V:5] z8 | 
[V:6] z8 | 
[V:1] c4B2G2- | 
[V:2] z8 | 
[V:3] z8 | 
[V:4] e2A2B4 | 
[V:5] z8 | 
[V:6] z8 | 
[V:1] G2A2B4 | 
[V:2] z8 | 
[V:3] z8 | 
[V:4] c4B2G2- | 
[V:5] z8 | 
[V:6] z8 | 
[V:1] E4z2B2- | 
[V:2] z8 | 
[V:3] z8 | 
[V:4] G2A2B4 | 
[V:5] z8 | 
[V:6] z8 | 
[V:1] B2c2B2e2- | 
[V:2] z8 | 
[V:3] z8 | 
[V:4] E2e4dc | 
[V:5] z8 | 
[V:6] z8 | 
[V:1] e2dcdcBA | 
[V:2] z8 | 
[V:3] z8 | 
[V:4] dcBAG3A | 
[V:5] z8 | 
[V:6] z8 | 
[V:1] G3AB2c2- | 
[V:2] E3FG2C2 | 
[V:3] z2E3FG2 | 
[V:4] B2c2B2e2- | 
[V:5] z8 | 
[V:6] z8 | 
[V:1] cBB4A2 | 
[V:2] G2z2z4 | 
[V:3] C2G2z4 | 
[V:4] edB2c4 | 
[V:5] z8 | 
[V:6] z8 | 
[V:1] [M:4/2]B4c4- :
[V:2] z8 | 
[V:3] z8 | 
[V:4] [M:4/2]B4e4- :
[V:5] z2E,3F,G,2 | 
[V:6] E,3F,G,2C,2 | 
[V:1] c2B2d4- | 
[V:2] z8 | 
[V:3] z8 | 
[V:4] e2d2f4 | 
[V:5] C,2G,2z2F,G, | 
[V:6] G,2z2F,G,A,B, | 
[V:1] d2c2c4- :
[V:2] cdefg3G | 
[V:3] z2cdefg2- | 
[V:4] e4c4 :
[V:5] A,B,C3C,C,2 | 
[V:6] C3C,C,2z2 | 
[V:1] c4B4 | 
[V:2] G2g2G2g2 | 
[V:3] gGG2g2G2 | 
[V:4] d8 | 
[V:5] z8 | 
[V:6] z8 | 
[V:1] [M:2/1]c2A4GF | 
[V:2] e2z2z4 | 
[V:3] g2e2z4 | 
[V:4] [M:2/1]c2c4B2 | 
[V:5] z8 | 
[V:6] z8 | 
[V:1] E4F2E2- | 
[V:2] z8 | 
[V:3] z8 | 
[V:4] c2A4G2 | 
[V:5] z8 | 
[V:6] z8 | 
[V:1] E2A4G2 | 
[V:2] z8 | 
[V:3] z8 | 
[V:4] A2c2B4 | 
[V:5] z8 | 
[V:6] z8 | 
[V:1] A2c2B4 | 
[V:2] z8 | 
[V:3] z8 | 
[V:4] A2e4d2 | 
[V:5] z8 | 
[V:6] z8 | 
[V:1] A2c4BA | 
[V:2] z8 | 
[V:3] z8 | 
[V:4] c2e4d2 | 
[V:5] z8 | 
[V:6] z8 | 
[V:1] G8 | 
[V:2] z8 | 
[V:3] z8 | 
[V:4] e6dc | 
[V:5] z2C,3D,E,F, | 
[V:6] C,3D,E,F,G,2 | 
[V:1] z4G4 | 
[V:2] E3FGAB2 | 
[V:3] z2E3FGA | 
[V:4] B2c2B2G2- | 
[V:5] G,2z2z4 | 
[V:6] z8 | 
[V:1] G4G4 | 
[V:2] z4E3F | 
[V:3] B2z4E2- | 
[V:4] GAB2E2e2- | 
[V:5] z2E,F,G,A,B,2 | 
[V:6] E,F,G,A,B,2E,2 | 
[V:1] G8 | 
[V:2] GAB2E2e2 | 
[V:3] EFGAB2E2 | 
[V:4] e2dcB4 | 
[V:5] E,2z2E,2E,2 | 
[V:6] z2E,2E,2E,2 | 
[V:1] A8 | 
[V:2] c2z2z4 | 
[V:3] e2c2z4 | 
[V:4] A2c4d2 | 
[V:5] E,2A,,4z2 | 
[V:6] A,,4z4 | 
[V:1] G4G4 | 
[V:2] z8 | 
[V:3] z8 | 
[V:4] e3dB2c2- | 
[V:5] z2E,3F,G,2 | 
[V:6] E,3F,G,2C,D, | 
[V:1] E4D2G2- | 
[V:2] z4G3A | 
[V:3] z4z2G2- | 
[V:4] c2BAB4 | 
[V:5] C,D,E,F,G,2z2 | 
[V:6] E,F,G,2z4 | 
[V:1] GFE4DC | 
[V:2] B2EFGAB2 | 
[V:3] GAB2EFGA | 
[V:4] E4E4 | 
[V:5] z8 | 
[V:6] z8 | 
[V:1] B,2E4D2 | 
[V:2] z4A3B | 
[V:3] B2z4A2- | 
[V:4] E4F4 | 
[V:5] z8 | 
[V:6] z8 | 
[V:1] [M:4/2]E8 :
[V:2] cde2c3A | 
[V:3] ABcde2c2- | 
[V:4] [M:4/2]E8 :
[V:5] z2A,,3A,,A,,2 | 
[V:6] A,,3A,,A,,2A,2 | 
[V:1] F8 | 
[V:2] A3FF2z2 | 
[V:3] cAA3FF2 | 
[V:4] z4A4- | 
[V:5] A,2F,2D,E,F,G, | 
[V:6] F,2D,E,F,G,A,2 | 
[V:1] E8 :
[V:2] z8 | 
[V:3] z8 | 
[V:4] A4G4 :
[V:5] A,2A,,B,,C,D,E,2- | 
[V:6] A,,B,,C,D,E,4 | 
[V:1] z4A4- | 
[V:2] c2ABcde2 | 
[V:3] z2c2ABcd | 
[V:4] A8 | 
[V:5] E,2A,,4z2 | 
[V:6] A,,4z4 | 
[V:1] A4G4 :
[V:2] E2G2E2e2 | 
[V:3] e2E2G2E2 | 
[V:4] B8 :
[V:5] z2E,3E,E,2 | 
[V:6] E,3E,E,2E,2 | 
[V:1] A8 | 
[V:2] z2e3ee2 | 
[V:3] e2z2e3e | 
[V:4] c8 | 
[V:5] E,2C,3A,,A,,2 | 
[V:6] C,3A,,A,,2z2 | 
[V:1] B8 :
[V:2] E2G2E2e2- | 
[V:3] e2E2G2E2 | 
[V:4] B4G4 :
[V:5] z2E,3E,E,2 | 
[V:6] E,3E,E,2E,2 | 
[V:1] c8 | 
[V:2] eee2c2z2 | 
[V:3] e3ee2c2 | 
[V:4] A8 | 
[V:5] E,2C,3A,,A,,2 | 
[V:6] C,3A,,A,,2z2 | 
[V:1] [M:2/1]B2G2A4 | 
[V:2] z8 | 
[V:3] z8 | 
[V:4] [M:2/1]G2G4F2 | 
[V:5] z8 | 
[V:6] z8 | 
[V:1] G2G4^F2 | 
[V:2] z8 | 
[V:3] z8 | 
[V:4] G4A4 | 
[V:5] z4z2D,2- | 
[V:6] z4D,4 | 
[V:1] G8 | 
[V:2] z8 | 
[V:3] z8 | 
[V:4] G4z2c2- | 
[V:5] D,2G,,2G,2E,2 | 
[V:6] G,,2G,2E,2C,2 | 
[V:1] z4G4 | 
[V:2] z4c3c | 
[V:3] z4z2c2- | 
[V:4] c2d2e4 | 
[V:5] C,2G,4C,2- | 
[V:6] G,4C,4 | 
[V:1] G2A4GF | 
[V:2] c2FGABc2 | 
[V:3] ccc2FGAB | 
[V:4] e2f4ed | 
[V:5] C,2z2z4 | 
[V:6] z8 | 
[V:1] E6F2- | 
[V:2] z8 | 
[V:3] c2z2z4 | 
[V:4] c6d2- | 
[V:5] z8 | 
[V:6] z8 | 
[V:1] FEC2D4 | 
[V:2] z8 | 
[V:3] z8 | 
[V:4] dcA2B4 | 
[V:5] z8 | 
[V:6] z8 | 
[V:1] E3FG2A2 | 
[V:2] z4c3c | 
[V:3] z4z2c2- | 
[V:4] c8 | 
[V:5] z2C,3C,C,2 | 
[V:6] C,3C,C,2C,2 | 
[V:1] G2c4BA | 
[V:2] c2cdefg2 | 
[V:3] ccc2cdef | 
[V:4] z4c4 | 
[V:5] C,2z2z4 | 
[V:6] z8 | 
[V:1] B2d2c2e2- | 
[V:2] G2g3gg2 | 
[V:3] g2G2g3g | 
[V:4] d4e4 | 
[V:5] z4z2C,2- | 
[V:6] z4C,3C, | 
[V:1] edc3Bd2- | 
[V:2] g2z2z4 | 
[V:3] g2g2z4 | 
[V:4] c3de2f2- | 
[V:5] C,C,C,2C,2z2 | 
[V:6] C,2C,2z4 | 
[V:1] dcBAB4 | 
[V:2] z8 | 
[V:3] z8 | 
[V:4] fedcd4 | 
[V:5] z4z2G,,2 | 
[V:6] z4G,,2G,2 | 
[V:1] c4z4 | 
[V:2] g3gg2g2 | 
[V:3] z2g3gg2 | 
[V:4] c2c4B2 | 
[V:5] G,2C,D,E,F,G,2- | 
[V:6] C,D,E,F,G,4 | 
[V:1] c4d2e2- | 
[V:2] z8 | 
[V:3] g2z2z4 | 
[V:4] c4z4 | 
[V:5] G,2C,2G,4 | 
[V:6] C,2G,4C,2- | 
[V:1] e2dcB2c2- | 
[V:2] g3gg2g2 | 
[V:3] z2g3gg2 | 
[V:4] c4d2e2- | 
[V:5] C,4G,4 | 
[V:6] C,2G,4C,2 | 
[V:1] c2BAG2A2- | 
[V:2] e3ee2e2 | 
[V:3] g2e3ee2 | 
[V:4] e2dcB2c2- | 
[V:5] C,2E,3E,E,2 | 
[V:6] E,3E,E,2A,,2 | 
[V:1] A2GFE2F2- | 
[V:2] c4c4 | 
[V:3] e2c4c2- | 
[V:4] c2BAG2A2- | 
[V:5] A,,2C,3C,C,2 | 
[V:6] C,3C,C,2F,,2 | 
[V:1] FEE4D2 | 
[V:2] z4A3B | 
[V:3] c2z4A2- | 
[V:4] AGE2F4 | 
[V:5] F,,2C,2z4 | 
[V:6] C,2z2z4 | 
[V:1] E8- | 
[V:2] c2A2e2z2 | 
[V:3] ABc2A2e2 | 
[V:4] E8- | 
[V:5] z2A,,3B,,C,2 | 
[V:6] A,,3B,,C,2A,,2 | 
[V:1] E8- | 
[V:2] E3FG2C2 | 
[V:3] z2E3FG2 | 
[V:4] E8- | 
[V:5] A,,2E,4z2 | 
[V:6] E,4z4 | 
[V:1] E8- | 
[V:2] G4z4 | 
[V:3] C2G4z2 | 
[V:4] E8- | 
[V:5] z2E,3F,G,2 | 
[V:6] E,3F,G,2C,2 | 
[V:1] E8- | 
[V:2] G3AB2E2 | 
[V:3] z2G3AB2 | 
[V:4] E8- | 
[V:5] C,2G,6- | 
[V:6] G,8- | 
[V:1] E8 |]  
[V:2] B8 |]  
[V:3] E2B6 |]  
[V:4] E8 |]  
[V:5] G,8 |]  
[V:6] G,8 |]  



